X:1
T:Title
%%score { 1 | 2 }
L:1/8
M:3/4
K:G
V:1 treble nm="Grand Piano"
V:2 bass 
V:1
 z2 z2 z[Q:1/4=100] D | [B,G][CA] [DB]3 [DG] | EG D3 d | dd d3 B |[M:5/8] [GB]2 [FA]3 | %5
[M:1/8] [D,D] |[M:3/4] [B,G][CA] [DB]3 [DG] | EG D3 d | dd d3 B |[M:5/8] [CFA]2 [B,DG]3 | %10
[M:1/8] d |[M:3/4] dd d3 B | [GB][FA] [FA]3 [GB] | [Ac][Ac] [Ac]3 [FA] |[M:5/8] [GB][Ac] B3 | %15
[M:1/8] D |[M:3/4] [B,G][CA] [DB]3 [DG] | EG D3 d | dd d3 B | %19
[M:13/8] [CFA]2 [B,DG]3 z z z z z z z2 |] %20
V:2
 z2 z2 z D, | [G,,D,][G,,D,] [G,,G,]3 [B,,G,] | [C,G,C][E,G,C] [G,B,]3[K:treble] [G,B,D] | %3
 [G,B,G][G,B,D] [G,B,G]3 [G,DG] |[M:5/8][K:bass] [D,D]2 [D,D]3 |[M:1/8] z | %6
[M:3/4] [G,,D,][G,,D,] [G,,G,]3 [B,,G,] | [C,G,C][E,G,C] [G,B,]3[K:treble] [G,B,D] | %8
 [G,B,G][G,B,D] [G,B,G]3 [G,DG] |[M:5/8][K:bass] D,2 G,,3 |[M:1/8][K:treble] [G,B,G] | %11
[M:3/4] [G,B,G][G,B,G] [G,B,G]3 [G,DG] | [D,D][D,D] [D,D]3 [D,D] | [D,D][D,D] [D,D]3 [D,D] | %14
[M:5/8] [D,D][D,D] [G,DG]3 |[M:1/8] D, |[M:3/4] [G,,D,][G,,D,] [G,,G,]3 [B,,G,] | %17
 [C,G,C][E,G,C] [G,B,]3[K:treble] [G,B,D] | [G,B,G][G,B,D] [G,B,G]3 [G,DG] | %19
[M:13/8][K:bass] D,2 G,,3 z z z z z z z2 |] %20

